X:1
T:Title
%%score { ( 1 3 5 ) | ( 2 4 ) }
L:1/8
Q:1/4=116
M:2/2
K:Ab
V:1 treble nm="Grand Piano"
V:3 treble 
V:5 treble 
V:2 bass 
V:4 bass 
V:1
 [A,CE]2 [A,DF]2 [A,DF]2 [A,EA]2 | A4 z4 | [A,CE]2 [A,DF]2 [A,EA]2 [A,=DF]2 | A4 G4 | A2 B2 B2 A2 | %5
w: P.~Skene * * *|||||
 [Ae]4 [Ad]4 | [Ac]2 [AB]2 [=DF]2 [DG]2 | B4 _c4 | [Cc]3 [Cc] [=Ec]2 [Ec]2 | [Fc]4 [_Gc]4 | e4 z4 | %11
w: ||||||
 [FB]4 [=Ec]4 | [Fc]2 [FB]2 [DF]2 [DB]2 | B4 A4 | A2 GF .B,3 A | [A,CA]8 |] %16
w: |||||
V:2
 A,,2 D,2 D,2 C,2 | z4 G2 E,2 | A,,2 D,2 C,2 B,,2 | [E,B,D]4 [E,B,D]4 | %4
 [_G,A,C]2 [G,CE]2 [G,CE]2 [G,CE]2 | [F,C]4 [F,D]4 | [F,=D]2 [F,D]2 [B,,B,]2 [B,,A,]2 | [E,G,D]8 | %8
 [A,,A,]3 [A,,A,] [C,G,]2 [C,B,]2 | [F,A,]4 [E,A,]4 | =A,3 B, D,2 D,2 | [D,F,]4 [C,G,]4 | %12
 [D,F,]2 [D,F,]2 [B,,B,]2 [B,,B,]2 | [E,CE]4 [E,_C=D]4 | [E,B,D]2 B,A, .E,3 D | A,,8 |] %16
V:3
 x8 | [B,D]6 [G,DF]2 | x8 | x8 | x8 | x8 | x8 | x8 | x8 | x8 | .F3 d [CFc]2 [DFB]2 | x8 | x8 | x8 | %14
 z4 [DG]4 | x8 |] %16
V:4
 x8 | E,8 | x8 | x8 | x8 | x8 | x8 | x8 | x8 | x8 | D,2 D,2 z4 | x8 | x8 | x8 | z2 [E,D]2 z2 E,2 | %15
 x8 |] %16
V:5
 x8 | x8 | x8 | x8 | x8 | x8 | x8 | x8 | x8 | x8 | z2 F2 z4 | x8 | x8 | x8 | z4 z2 B,2 | x8 |] %16

